X:1
T:Title
%%score { ( 1 4 ) | ( 2 3 ) }
L:1/8
M:3/4
K:Ab
V:1 treble nm="Grand Piano"
V:4 treble 
V:2 bass 
V:3 bass 
V:1
 z2 z2[Q:1/4=112] [CE]2 | [Ec]2 [=D_c]2 [E=c]2 | [CE]2 [_C=D]2 [=CE]2 | [DF]2 [FA]2 [Fd]2 | %4
 [Ec]4 c2 | [Ge]2 [EGB]2 [_G=A]2 | [EGB]2 [EAc]2 [EBd]2 | [EAc]2 [EB]2 [=DFA]2 | [EGB]4 [G,E]2 | %9
 [Ec]2 [=D_c]2 [E=c]2 | [CE]2 [_C=D]2 [=CE]2 | [DF]2 [FA]2 [Fd]2 | [Ec]4 [Ee]2 | %13
 [Ge]2 [GB]2 [Ac]2 | [FGd]2 [EGc]2 [DEB]2 | [CEA]6- | [CEA]4 z2 | B2 B2 B2 | B2 c2 d2 | c6- | %20
 c4 z2 | c2 z2 z2 | [=EG]2 z2 z2 | A6- |[M:2/4] A4 |[M:1/4] [_GA]2 |[M:3/4] [FA]2 [=EG]2 [FA]2 | %27
 [Fd]4 [DF]2 | [DF]2 [CE]2 [CA]2 | c4 e2 | [Ge]2 [GB]2 [Ac]2 | [FGd]2 [EGc]2 [DEB]2 | [A,CA]6- | %33
[M:2/4] [A,CA]4 |] %34
V:2
 z2 z2 [A,,A,]2 | [A,,A,]2 [A,,A,]2 [A,,A,]2 | [A,,A,]2 [A,,A,]2 [A,,A,]2 | %3
 [D,A,]2 [D,A,]2 [D,A,]2 | [A,,A,]4 [A,E]2 | [E,B,]2 E,2 E2 | E,2 E,2 E,2 | A,2 G,2 F,2 | E,4 E,2 | %9
 [A,,A,]2 [A,,A,]2 [A,,A,]2 | [A,,A,]2 [A,,A,]2 [A,,A,]2 | [D,A,]2 [D,A,]2 [D,A,]2 | %12
 [A,,A,]4 [A,C]2 | [E,B,]2 [E,E]2 [E,E]2 | E,2 E,2 E,2 | A,,6- | A,,4 z2 | [E,G,E]6 | %18
 [E,E]2- [E,A,E]2 [E,B,E]2 | [A,E]2 [E,A,]2 [C,A,]2 | [A,,A,]4 [A,,A,]2 | z2[K:treble] c2 c2 | %22
 z2 F2 C,2 | [F,CF]2 [F,C]2 [F,C]2 |[M:2/4] [E,C]4 |[M:1/4] [E,C]2 |[M:3/4] [D,D]2 [D,D]2 [D,D]2 | %27
 [D,A,]4 [D,A,]2 | [A,,A,]2 [A,,A,]2 [A,,A,]2 | [A,E]4 [A,CE]2 | [E,B,]2 [E,E]2 [E,E]2 | %31
 E,2 E,2 E,2 | A,,6- |[M:2/4] A,,4 |] %34
V:3
 x6 | x6 | x6 | x6 | x6 | x6 | x6 | x6 | x6 | x6 | x6 | x6 | x6 | x6 | x6 | x6 | x6 | x6 | %18
 G,2 z2 z2 | x6 | x6 | [C,G,]6[K:treble] | C,4 z2 | x6 |[M:2/4] x4 |[M:1/4] x2 |[M:3/4] x6 | x6 | %28
 x6 | x6 | x6 | x6 | x6 |[M:2/4] x4 |] %34
V:4
 x6 | x6 | x6 | x6 | x6 | x6 | x6 | x6 | x6 | x6 | x6 | x6 | x6 | x6 | x6 | x6 | x6 | x6 | x6 | %19
 z2 E2 E2 | E4 [Ec]2 | =E6 | C2- [CA]2 [CGB]2 | z2 F2 F2 |[M:2/4] _G4 |[M:1/4] x2 |[M:3/4] x6 | %27
 x6 | x6 | x6 | x6 | x6 | x6 |[M:2/4] x4 |] %34

